images/Services/Psychology.svg

<?xml-stylesheet type="text/css" href="./css/style.min.css"?>
<svg width="106" height="106" viewBox="0 0 106 106"  xmlns="http://www.w3.org/2000/svg">
<g clip-path="url(#clip0)">
<path d="M51.2877 64.9367L47.7545 79.0695C47.6234 79.5975 47.7424 80.1564 48.0771 80.5851C48.4118 81.013 48.9251 81.264 49.4685 81.264C49.6134 81.264 49.7575 81.2459 49.8981 81.2114L56.9645 79.4448C57.9039 79.2015 58.4723 78.2466 58.236 77.3047C58.0005 76.3627 57.0491 75.7882 56.1054 76.0168L51.8976 77.0769L54.7157 65.7993C54.8848 65.1808 54.7062 64.52 54.249 64.0706C53.791 63.6221 53.1268 63.4564 52.5118 63.6376C51.8967 63.8187 51.4292 64.319 51.2877 64.9444V64.9367Z" fill="#87AD3B"/>
<path d="M44.6017 60.1216C43.6563 59.8818 42.6954 60.4529 42.4547 61.3983C42.4409 61.4552 40.946 67.1311 37.1023 67.1311C33.2585 67.1311 31.7636 61.4552 31.7498 61.3983C31.5117 60.452 30.5517 59.8775 29.6054 60.1147C28.6591 60.3528 28.0846 61.312 28.3218 62.2592C28.4089 62.6033 30.499 70.6644 37.1023 70.6644C43.7055 70.6644 45.7956 62.6033 45.8827 62.2592C46.1164 61.3155 45.5437 60.3597 44.6017 60.1216Z" fill="#87AD3B"/>
<path d="M68.9012 70.6644C75.5044 70.6644 77.5945 62.6033 77.6816 62.2592C77.9188 61.312 77.3444 60.3528 76.3981 60.1147C75.4518 59.8775 74.4917 60.452 74.2536 61.3983C74.2398 61.4552 72.745 67.1311 68.9012 67.1311C65.0574 67.1311 63.5626 61.4552 63.5488 61.3983C63.3107 60.452 62.3506 59.8775 61.4043 60.1147C60.4581 60.3528 59.8836 61.312 60.1208 62.2592C60.2079 62.6033 62.298 70.6644 68.9012 70.6644Z" fill="#87AD3B"/>
<path d="M58.3016 14.133C58.3016 11.2061 55.9285 8.83313 53.0017 8.83313C50.0749 8.83313 47.7019 11.2061 47.7019 14.133C47.7019 17.0598 50.0749 19.4328 53.0017 19.4328C55.9285 19.4328 58.3016 17.0598 58.3016 14.133ZM51.2351 14.133C51.2351 13.1574 52.0261 12.3663 53.0017 12.3663C53.9773 12.3663 54.7683 13.1574 54.7683 14.133C54.7683 15.1086 53.9773 15.8996 53.0017 15.8996C52.0261 15.8996 51.2351 15.1086 51.2351 14.133Z" fill="#87AD3B"/>
<path d="M90.1005 51.4456V40.632C90.1005 35.735 78.9341 33.5354 68.9012 32.546V5.29983C68.9012 2.37302 66.5282 0 63.6014 0H42.4021C39.4753 0 37.1023 2.37302 37.1023 5.29983V32.546C27.0693 33.5354 15.903 35.735 15.903 40.632V51.4456C11.8772 52.4315 8.83652 56.7083 8.83652 61.8313C8.83652 67.0216 11.9634 71.3424 16.0798 72.2541C17.805 91.3634 33.8226 106 53.0086 106C72.1955 106 88.2131 91.3634 89.9383 72.2541C94.04 71.3424 97.167 67.0216 97.167 61.8313C97.167 56.7083 94.1263 52.4315 90.1005 51.4456ZM15.903 68.463C13.5765 67.088 12.2127 64.5287 12.3697 61.8313C12.2127 59.134 13.5765 56.5746 15.903 55.1996V68.463ZM40.6355 5.29983C40.6355 4.32422 41.4265 3.53322 42.4021 3.53322H63.6014C64.577 3.53322 65.368 4.32422 65.368 5.29983V37.7733L53.791 31.9844C53.2942 31.736 52.7093 31.736 52.2125 31.9844L40.6355 37.7733V5.29983ZM86.5673 68.8978C86.5673 87.4359 71.5399 102.463 53.0017 102.463C34.4644 102.463 19.4362 87.4359 19.4362 68.8978V44.8044C28.4616 49.396 51.7812 49.465 53.0017 49.465C54.2223 49.465 77.5419 49.396 86.5673 44.8044V68.8978ZM53.0017 45.9318C32.1561 45.9318 20.2789 42.5013 19.4362 40.7329V40.6958C19.8899 39.69 24.7817 37.3584 37.1023 36.1025V40.632C37.1023 41.2445 37.4188 41.8129 37.9398 42.1355C38.46 42.4573 39.1104 42.4866 39.6581 42.2132L53.0017 35.5409L66.3453 42.2218C66.8939 42.4961 67.5461 42.4659 68.0679 42.1416C68.589 41.8172 68.9047 41.2462 68.9012 40.632V36.099C81.2994 37.3671 86.1783 39.7133 86.5794 40.5475C85.7987 42.4797 73.9112 45.9318 53.0017 45.9318ZM90.1005 68.463V55.1996C92.427 56.5746 93.7907 59.134 93.6337 61.8313C93.7907 64.5287 92.427 67.088 90.1005 68.463Z" fill="#87AD3B"/>
</g>
<defs>
<clipPath id="clip0">
<rect width="106" height="106" fill="white"/>
</clipPath>
</defs>
</svg>

<?xml-stylesheet type="text/css" href="/css/style.min.css"?><svg viewBox="0 0 106 106" xmlns="http://www.w3.org/2000/svg"><g clip-path="url(#clip0)" fill="#87AD3B"><path d="M51.288 64.937L47.755 79.07a1.77 1.77 0 002.143 2.141l7.066-1.766a1.767 1.767 0 00-.859-3.428l-4.207 1.06 2.818-11.278a1.768 1.768 0 10-3.428-.855v-.007zm-6.686-4.815a1.767 1.767 0 00-2.147 1.276c-.014.057-1.509 5.733-5.353 5.733-3.843 0-5.338-5.676-5.352-5.733a1.768 1.768 0 00-3.428.861c.087.344 2.177 8.405 8.78 8.405 6.604 0 8.694-8.06 8.78-8.405a1.767 1.767 0 00-1.28-2.137zm24.299 10.542c6.603 0 8.694-8.06 8.78-8.405a1.768 1.768 0 00-3.427-.86c-.014.056-1.509 5.732-5.353 5.732s-5.338-5.676-5.352-5.733a1.768 1.768 0 00-3.428.861c.087.344 2.177 8.405 8.78 8.405zM58.302 14.133a5.3 5.3 0 10-10.6 0 5.3 5.3 0 0010.6 0zm-7.067 0a1.767 1.767 0 113.534 0 1.767 1.767 0 01-3.534 0z"/><path d="M90.1 51.446V40.632c0-4.897-11.166-7.097-21.199-8.086V5.3a5.3 5.3 0 00-5.3-5.3H42.402a5.3 5.3 0 00-5.3 5.3v27.246c-10.033.99-21.199 3.189-21.199 8.086v10.814c-4.026.986-7.066 5.262-7.066 10.385 0 5.19 3.126 9.511 7.243 10.423C17.805 91.364 33.823 106 53.009 106c19.186 0 35.204-14.637 36.93-33.746 4.101-.912 7.228-5.232 7.228-10.423 0-5.123-3.04-9.4-7.067-10.385zM15.903 68.463a7.217 7.217 0 01-3.533-6.632 7.217 7.217 0 013.533-6.631v13.263zM40.636 5.3c0-.976.79-1.767 1.766-1.767h21.2c.975 0 1.766.791 1.766 1.767v32.473l-11.577-5.789a1.765 1.765 0 00-1.578 0l-11.578 5.79V5.3zm45.931 63.598c0 18.538-15.027 33.565-33.565 33.565-18.538 0-33.566-15.027-33.566-33.565V44.804c9.026 4.592 32.345 4.661 33.566 4.661 1.22 0 24.54-.069 33.565-4.66v24.093zM53.002 45.932c-20.846 0-32.723-3.43-33.566-5.2v-.036c.454-1.006 5.346-3.338 17.666-4.593v4.529a1.768 1.768 0 002.556 1.581l13.344-6.672 13.343 6.68a1.767 1.767 0 002.556-1.589v-4.533c12.398 1.268 17.277 3.614 17.678 4.449-.78 1.932-12.668 5.384-33.577 5.384zM90.1 68.463V55.2a7.217 7.217 0 013.534 6.631 7.217 7.217 0 01-3.534 6.632z"/></g><defs><clipPath id="clip0"><path fill="#fff" d="M0 0h106v106H0z"/></clipPath></defs></svg>
